X:1
T:Title
%%score 1 { ( 2 4 ) | 3 }
L:1/8
Q:1/4=92
M:4/4
K:Ab
V:1 treble nm="Grand Piano, Soprano"
V:2 bass nm="Choir Pad, The Charge of the Faithful"
V:4 bass 
V:3 bass 
V:1
 E>E [Ec]>[Ed] [Ec]>[DB] [CA]2 | [EA]>[EA] [FB]>[FA] [FA]>[DF] [CE]2 | %2
w: By~H.~W.~Porter * * * * * *||
 E>E [FA]>[FA] [FA]>[FA] [=EG]2 | [FA]2 [GB]6 | E>E [Ec]>[Fd] [Ec]>[DB] [CA]2 | %5
w: |||
 [_GB]>[Gc] [Fd]>[Fe] [Fd]>[Fc] [FB]2 | [EB]>[EB] [Ee]2 [CA]2 [EA]>[EA] | [DG]>[DG] [CA]6 | %8
w: |||
 z2 .[Ac]2 z2 .[Ac]>[Ac] | [EB]>[Ac] [Ge]4 [EB]2- | [EB]2 .A2 z2 [FA]>[CG] | [FA]>[FB] [=Ec]6 | %12
w: ||||
 [=Ec]>[Ec] [Fd]>[Fe] [Fd]>[Fc] [GB]2 | [EB]>[EB] [Ee]>[Ee] [Ee]>[Ec] [CA]2 | %14
w: ||
 [=DA]>[DB] [Ec]>[Ec] [Ec]>[CA] [_DB]2 | [DB]>[DB] [CA]6- | [CA]2 z2 z4 |] %17
w: |||
V:2
 E,>E, A,>A, A,>A, A,2 | A,>A,[K:treble] D>D D>A, A,2 | C>C C>C C>C C2 | C2 E6 | %4
 G,>G, A,>A, A,>A, A,2 | A,>E D>F, B,>=A, B,2 | G,>G, A,2 A,2 C>C | B,>B, A,6 | %8
 z2 E2 E,2[K:treble] .E>E | z2 E4[K:bass] D2- | D2 z2 z4[K:treble] | C>G, G,2[K:bass] z2 F,2 | %12
 G,>G, B,>B, B,>B, B,2 | G,>G, A,>A, A,>A, A,2 | A,>A, A,>A, A,>A, A,2 | G,>G, A,6- | A,2 z2 z4 |] %17
V:3
 z2 A,,>A,, A,,>A,, A,,2 | C,>C, D,>D, D,>D, A,,2 | A,>A, F,>F, F,>F, C,2 | F,2 E,2 B,2 G,2 | %4
 E,>E, A,,>A,, A,,>A,, A,,2 | A,,>A,, B,,>B,, B,,>C, D,2 | D,>D, C,2 F,2 E,>E, | E,>E, A,,6 | %8
 z2 [A,,A,]2 E,,2 .[A,,A,]>[A,,A,] | [G,,G,]>[A,,A,] [B,,B,]2 E,,2 [G,,G,]2 | %10
 E,,2 [F,,F,]2 .C,,2 [F,,F,]>[=E,,=E,] | [F,,F,]>[D,,D,] [C,,C,]2 G,,2 =E,,2 | %12
 C,>C, B,,>B,, B,,>B,, E,2 | D,>D, C,>C, C,>C, F,2 | F,>F, E,>E, E,>E, E,2 | E,>E, A,,6- | %16
 A,,2 z2 z4 |] %17
V:4
 x8 | x2[K:treble] x6 | x8 | x8 | x8 | x8 | x8 | x8 | x6[K:treble] x2 | E>E z2[K:bass] E,2 z2 | %10
 E,2 C2 .C,2[K:treble] C>C | z4[K:bass] G,4 | x8 | x8 | x8 | x8 | x8 |] %17

